site/static/img/page-produits/gel.svg

<?xml version="1.0" encoding="UTF-8"?>
<svg width="143px" height="143px" viewBox="0 0 143 143" version="1.1" xmlns="http://www.w3.org/2000/svg" xmlns:xlink="http://www.w3.org/1999/xlink">
    <!-- Generator: Sketch 61.1 (89650) - https://sketch.com -->
    <title>Group</title>
    <desc>Created with Sketch.</desc>
    <defs>
        <polygon id="path-1" points="0.0998865793 0.244989793 26.7000836 0.244989793 26.7000836 57.5700935 0.0998865793 57.5700935"></polygon>
        <polygon id="path-3" points="0 0.244989793 26.5999904 0.244989793 26.5999904 57.5700935 0 57.5700935"></polygon>
        <polygon id="path-5" points="0 77 29 77 29 0 0 0"></polygon>
    </defs>
    <g id="Page-1" stroke="none" stroke-width="1" fill="none" fill-rule="evenodd">
        <g id="QUELS-PRODUITS-DEPOSER" transform="translate(-609.000000, -1061.000000)">
            <g id="Group" transform="translate(609.000000, 1061.000000)">
                <g id="Group-7-Copy" fill="#FFD8DD">
                    <circle id="Oval-Copy-4" cx="71.5" cy="71.5" r="71.5"></circle>
                </g>
                <g id="Group-13" transform="translate(56.000000, 31.000000)">
                    <g id="Group-3" transform="translate(2.175000, 19.429907)">
                        <mask id="mask-2" fill="white">
                            <use xlink:href="#path-1"></use>
                        </mask>
                        <g id="Clip-2"></g>
                        <path d="M26.3159656,6.81336182 C25.6305268,2.31232043 20.8272503,0.52764753 20.6178551,0.452062305 C19.4707861,0.0369310191 18.027441,0.366686248 16.843938,0.411724077 C14.7087481,0.492400534 12.5695544,0.470860703 10.4351652,0.376085447 C8.70595366,0.291101024 6.80017754,0.0870600801 5.18867567,0.85387806 C2.8276753,1.9778656 0.796982761,4.22662394 0.403015597,6.81297018 C-0.038195597,9.70870672 0.168797313,12.7579635 0.142372687,15.6791562 C0.111143582,19.1008563 0.0971305224,22.5225563 0.100333507,25.944648 C0.109141716,34.9396814 0.252875672,43.9351064 0.403015597,52.9281816 C0.403015597,52.9281816 0.703295448,55.8654312 4.10686746,56.7466061 C6.8454197,57.455854 9.76654209,57.4029835 12.5751596,57.4574206 C16.1144581,57.5259564 20.1013738,57.9602777 23.4244708,56.4928278 C25.0099484,55.7925874 26.1237865,54.6118131 26.3175671,52.8804023 C27.0386391,46.4478255 26.5081447,39.6968509 26.5649977,33.2164949 C26.6158451,27.438729 26.6538805,21.6597882 26.6110406,15.8816306 C26.5886197,12.9024762 26.7663854,9.77175968 26.3159656,6.81336182" id="Fill-1" fill="#C5E2E0" mask="url(#mask-2)"></path>
                    </g>
                    <g id="Group-6" transform="translate(0.000000, 19.429907)">
                        <mask id="mask-4" fill="white">
                            <use xlink:href="#path-3"></use>
                        </mask>
                        <g id="Clip-5"></g>
                        <path d="M26.2158723,6.81336182 C25.5304335,2.31232043 20.727157,0.52764753 20.5177619,0.452062305 C19.3706928,0.0369310191 17.9273477,0.366686248 16.7438447,0.411724077 C14.6086548,0.492400534 12.4694611,0.470860703 10.3350719,0.376085447 C8.60586037,0.291101024 6.70008425,0.0870600801 5.08858239,0.85387806 C2.72758201,1.9778656 0.696889478,4.22662394 0.302922313,6.81297018 C-0.138288881,9.70870672 0.0687040299,12.7579635 0.042279403,15.6791562 C0.0110502985,19.1008563 -0.00296276119,22.5225563 0.000240223881,25.944648 C0.00904843284,34.9396814 0.152782388,43.9351064 0.302922313,52.9281816 C0.302922313,52.9281816 0.603202164,55.8654312 4.00677418,56.7466061 C6.74532642,57.455854 9.66644881,57.4029835 12.4750663,57.4574206 C16.0143649,57.5259564 20.0012805,57.9602777 23.3243775,56.4928278 C24.9098551,55.7925874 26.0236932,54.6118131 26.2174738,52.8804023 C26.9385458,46.4478255 26.4080514,39.6968509 26.4649044,33.2164949 C26.5157518,27.438729 26.5537872,21.6597882 26.5109473,15.8816306 C26.4885264,12.9024762 26.6662921,9.77175968 26.2158723,6.81336182" id="Fill-4" fill="#FFFFFF" mask="url(#mask-4)"></path>
                    </g>
                    <path d="M7.25,0.639308471 C7.25,0.639308471 7.64280936,-0.0487343643 8.13382107,0.00275183423 C8.62483278,0.0542380328 20.0163043,0.151749772 20.212709,0.444284991 C20.4091137,0.73682021 20.212709,2.47759979 20.212709,2.47759979 L20.3,18.0939099 L19.328888,18.6789803 C19.328888,18.6789803 8.62483278,18.4839568 8.03561873,18.6789803 C7.44640468,18.8740038 7.25,18.0939099 7.25,18.0939099 L7.25,0.639308471 Z" id="Fill-7" fill="#FFFFFF"></path>
                    <path d="M9.0836137,0.719626168 L18.125,0.719626168 C18.125,0.719626168 18.0256441,3.45692118 16.7340175,3.55468171 C15.4423909,3.65244225 12.3623582,3.55468171 12.3623582,3.55468171 L9.58039316,3.59808739 C9.58039316,3.59808739 7.99069887,1.20842885 9.0836137,0.719626168" id="Fill-9" fill="#FF9CA8"></path>
                    <mask id="mask-6" fill="white">
                        <use xlink:href="#path-5"></use>
                    </mask>
                    <g id="Clip-12"></g>
                    <polygon id="Fill-11" fill="#E9364B" mask="url(#mask-6)" points="5.8 67.6448598 22.475 67.6448598 22.475 28.7850467 5.8 28.7850467"></polygon>
                </g>
            </g>
        </g>
    </g>
</svg>

<svg height="143" viewBox="0 0 143 143" width="143" xmlns="http://www.w3.org/2000/svg" xmlns:xlink="http://www.w3.org/1999/xlink"><mask id="a" fill="#fff"><path d="m.09988658.24498979h26.60019702v57.32510371h-26.60019702z" fill="#fff" fill-rule="evenodd"/></mask><mask id="b" fill="#fff"><path d="m0 .24498979h26.5999904v57.32510371h-26.5999904z" fill="#fff" fill-rule="evenodd"/></mask><mask id="c" fill="#fff"><path d="m0 77h29v-77h-29z" fill="#fff" fill-rule="evenodd"/></mask><g fill="none" fill-rule="evenodd"><circle cx="71.5" cy="71.5" fill="#ffd8dd" r="71.5"/><g transform="translate(56 31)"><path d="m26.3159656 6.81336182c-.6854388-4.50104139-5.4887153-6.28571429-5.6981105-6.36129951-1.147069-.41513129-2.5904141-.08537606-3.7739171-.04033823-2.1351899.08067645-4.2743836.05913662-6.4087728-.03563863-1.72921154-.08498443-3.63498766-.28902537-5.24648953.47779261-2.36100037 1.12398754-4.39169291 3.37274588-4.78566007 5.95909212-.4412112 2.89573654-.23421829 5.94499332-.26064291 8.86618602-.03122911 3.4217001-.04524217 6.8434001-.04203918 10.2654918.00880821 8.9950334.15254216 17.9904584.30268209 26.9835336 0 0 .30027985 2.9372496 3.70385186 3.8184245 2.73855224.7092479 5.65967463.6563774 8.46829214.7108145 3.5392985.0685358 7.5262142.5028571 10.8493112-.9645928 1.5854776-.7002404 2.6993157-1.8810147 2.8930963-3.6124255.721072-6.4325768.1905776-13.1835514.2474306-19.6639074.0508474-5.7777659.0888828-11.5567067.0460429-17.3348643-.0224209-2.9791544.1553448-6.10987092-.295075-9.06826878" fill="#c5e2e0" mask="url(#a)" transform="translate(2.175 19.429907)"/><path d="m26.2158723 6.81336182c-.6854388-4.50104139-5.4887153-6.28571429-5.6981104-6.36129951-1.1470691-.41513129-2.5904142-.08537606-3.7739172-.04033823-2.1351899.08067645-4.2743836.05913662-6.4087728-.03563863-1.72921153-.08498443-3.63498765-.28902537-5.24648951.47779261-2.36100038 1.12398754-4.39169291 3.37274588-4.78566008 5.95909212-.44121119 2.89573654-.23421828 5.94499332-.26064291 8.86618602-.0312291 3.4217001-.04524216 6.8434001-.04203918 10.2654918.00880821 8.9950334.15254217 17.9904584.30268209 26.9835336 0 0 .30027985 2.9372496 3.70385187 3.8184245 2.73855224.7092479 5.65967463.6563774 8.46829212.7108145 3.5392986.0685358 7.5262142.5028571 10.8493112-.9645928 1.5854776-.7002404 2.6993157-1.8810147 2.8930963-3.6124255.721072-6.4325768.1905776-13.1835514.2474306-19.6639074.0508474-5.7777659.0888828-11.5567067.0460429-17.3348643-.0224209-2.9791544.1553448-6.10987092-.295075-9.06826878" fill="#fff" mask="url(#b)" transform="translate(0 19.429907)"/><path d="m7.25.63930847s.39280936-.68804283.88382107-.63655664c.49101171.0514862 11.88248323.14899794 12.07888793.44153316s0 2.0333148 0 2.0333148l.087291 15.61631011-.971112.5850704s-10.70405522-.1950235-11.29326927 0-.78561873-.5850704-.78561873-.5850704z" fill="#fff"/><path d="m9.0836137.71962617h9.0413863s-.0993559 2.73729501-1.3909825 2.83505554c-1.2916266.09776054-4.3716593 0-4.3716593 0l-2.78196504.04340568s-1.58969429-2.38965854-.49677946-2.87846122" fill="#ff9ca8"/><path d="m5.8 67.6448598h16.675v-38.8598131h-16.675z" fill="#e9364b" mask="url(#c)"/></g></g></svg>
